src/icons/svgs/16/nps.svg

<svg width="16" height="16" viewBox="0 0 16 16" fill="none" xmlns="http://www.w3.org/2000/svg">
<path d="M1.97328 10.8901V7.0296H2.01527L4.30916 10.8901H5.16412V5.11839H4.18702V8.95772H4.14504L1.8626 5.11839H1V10.8901H1.97328Z" fill="black"/>
<path d="M8.55725 5.11839H6.47328V10.8901H7.50382V8.95349H8.54962C9.67557 8.95349 10.3168 8.12896 10.3168 7.04228C10.3168 5.96406 9.68321 5.11839 8.55725 5.11839ZM9.26718 7.04228C9.26718 7.68499 8.92748 8.05708 8.35878 8.05708H7.5V6.02748H8.35878C8.92748 6.02748 9.26718 6.39535 9.26718 7.04228Z" fill="black"/>
<path d="M10.9237 9.31712C10.9695 10.2304 11.6107 11 12.9351 11C14.2557 11 15 10.2643 15 9.19027C15 8.22199 14.4427 7.77378 13.5992 7.56237L12.7901 7.35518C12.3321 7.24524 12.0763 7.01691 12.0763 6.67019C12.0763 6.22199 12.416 5.89641 12.9847 5.89641C13.5382 5.89641 13.8779 6.21353 13.9427 6.62791H14.9198C14.8702 5.73996 14.1832 5 12.9924 5C11.8435 5 11.0458 5.68922 11.0458 6.7463C11.0458 7.62156 11.5573 8.13742 12.3664 8.34038L13.1718 8.54757C13.7137 8.6871 13.9733 8.89429 13.9733 9.29598C13.9733 9.76956 13.6336 10.0951 12.9924 10.0951C12.3779 10.0951 11.9885 9.76533 11.9198 9.31712H10.9237Z" fill="black"/>
</svg>

<svg width="16" height="16" viewBox="0 0 16 16" xmlns="http://www.w3.org/2000/svg">
    <path d="M1.973 10.89V7.03h.042l2.294 3.86h.855V5.118h-.977v3.84h-.042l-2.282-3.84H1v5.772h.973zm6.584-5.772H6.473v5.772h1.03V8.953H8.55c1.126 0 1.767-.824 1.767-1.91 0-1.079-.634-1.925-1.76-1.925zm.71 1.924c0 .643-.34 1.015-.908 1.015H7.5v-2.03h.859c.568 0 .908.368.908 1.015zm1.657 2.275c.046.913.687 1.683 2.011 1.683C14.255 11 15 10.264 15 9.19c0-.968-.557-1.416-1.4-1.628l-.81-.207c-.458-.11-.714-.338-.714-.685 0-.448.34-.774.909-.774.553 0 .893.318.958.732h.977C14.87 5.74 14.183 5 12.992 5c-1.149 0-1.946.69-1.946 1.746 0 .876.511 1.391 1.32 1.594l.806.208c.542.14.801.346.801.748 0 .474-.34.8-.98.8-.615 0-1.005-.33-1.073-.779h-.996z"/>
</svg>
